!!!OTL: Fang fengzheng
!!!ARE: Asia, China,ÿLiaoning
!! III, 287
!!!SCT: C1561
!!!YEM: Copyright 1995, estate of Helmut Schaffrath.
**kern
*ICvox
*Ivox
*M2/4
*k[f#]
*G:
{8a
8a
8g
16e
16g
=1
2a
=2
8a
8a
8e
8g
=3
2a}
=4
{4a
8a
8ee
=5
4dd
8dd
8dd
=6
8a
8dd
8b
8a
=7
8g
8g
8e
16d
16e
=8
4g
8g
8g}
=9
{8a
4a
8a
=10
4ee
4dd
=11
8.e
16g
4a
=12
4g
4g}
=13
{8a
8a
8a
8a
=14
8g
8a
8dd
8b
=15
4a
8g
8e
=16
8d
8d
8c
8e
=17
2d}
=18
{8a
16a
16g
8e
8g
=19
8a
8g
4a
=20
8a
16a
16g
8e
8g
=21
8a
8g
4a}
=22
{8a
8a
8a
8a
=23
8g
8a
8dd
8b
=24
4a
8g
8e
=25
8d
8d
8c
8e
=26
2d}
==
!!!AGN: Xiaodiao
!!!AMT: simple duple
!!!AIN: vox
!!!EED: Helmut Schaffrath
!!!EEV: 1.0
*-
